X:1
T:[ID 3-35]
T:[ID 3-35]
T:Bezeichnung standardisiert: Allegro Allegro 22.
T:Urheber unbekannt Datum in der hier transkribierten schriftlichen Quelle: 1767
C:Urheber unbekannt
C:Datum in der hier transkribierten schriftlichen Quelle: 1767
%%score 1 2
L:1/8
M:4/4
K:D
V:1 treble nm="Primo"
V:2 treble nm="Secondo"
V:1
 dfad' c'2 z a | bc'd'a gf z a | faea daca | faea dace | fb/a/ T^g3 a a2 :: Acea ^g2 z e | %6
 f^gae dc z e | faea dBce | faea dBce | ceBe ceBe | fbe^g a2 z a | baad' gffa | baad' gffa | %13
 aggf feef | feed dcca | bd'ad' gffa | bd'ad' gffa | f/e/d/e/ fe d4 :| %18
V:2
 !fermata!defg agfe | gfgf edef | d z c z d/f/a Af | d z c z fdec | dfd>B c2 z2 :: ABcd edcA | %6
 dBc^G GA z c | dcBc B^GAc | dcBc B^GAc | Acec Aaec | dcBe c2 z f | gffg eddf | gffg eddf | %13
 feed dcca | aggf feef | g z f z ead'f | g z f z ead'f | d4 FG F2 :| %18

